X: 26915
T: Miseeka
R: mazurka
M: 3/4
K: Gmajor
|:G2 B2 d2|d2 B2 A2|G2 B2 d2|A4 G2|F2 A2 B2|
c2 B2 A2|1 B6|B4 A2:|2 G4 GA|G2 B2 d2||
|:g6|f6|ef ed BA|B6|
[1 AB AG FG|A6|GA GF DF|G2 B2 d2:|
[2 AB AG FG|A4 AB|A2 G2 F2|G4 D2||

